austria/municipalities/41104.svg

<?xml version="1.0" encoding="UTF-8"?>
<!DOCTYPE svg PUBLIC "-//W3C//DTD SVG 1.1//EN" "http://www.w3.org/Graphics/SVG/1.1/DTD/svg11.dtd">
<svg xmlns="http://www.w3.org/2000/svg" version="1.1" width="166px" height="207px" style="shape-rendering:geometricPrecision; text-rendering:geometricPrecision; image-rendering:optimizeQuality; fill-rule:evenodd; clip-rule:evenodd" xmlns:xlink="http://www.w3.org/1999/xlink">
<g><path style="opacity:1" fill="#000000" d="M -0.5,-0.5 C 54.8333,-0.5 110.167,-0.5 165.5,-0.5C 165.5,44.1667 165.5,88.8333 165.5,133.5C 160.657,161.881 145.657,183.381 120.5,198C 112.336,201.554 104.002,204.388 95.5,206.5C 86.8333,206.5 78.1667,206.5 69.5,206.5C 29.593,196.928 6.25968,171.928 -0.5,131.5C -0.5,87.5 -0.5,43.5 -0.5,-0.5 Z"/></g>
<g><path style="opacity:1" fill="#cb0000" d="M 3.5,3.5 C 56.1667,3.5 108.833,3.5 161.5,3.5C 161.833,21.1792 161.5,38.8459 160.5,56.5C 158.56,57.0951 156.56,57.4284 154.5,57.5C 148.5,56.1667 142.5,54.8333 136.5,53.5C 131.167,54.5 125.833,55.5 120.5,56.5C 113.982,54.5832 107.315,53.2499 100.5,52.5C 93.6417,52.9757 86.9751,54.3091 80.5,56.5C 74.1054,54.7558 67.6054,53.7558 61,53.5C 54.4465,54.0199 47.9465,55.0199 41.5,56.5C 36.1646,55.165 30.8313,53.8317 25.5,52.5C 21.3205,53.3588 17.3205,54.6921 13.5,56.5C 9.88153,56.1427 6.71486,54.8094 4,52.5C 3.50007,36.1701 3.3334,19.8367 3.5,3.5 Z"/></g>
<g><path style="opacity:1" fill="#fefffe" d="M 95.5,54.5 C 104.158,54.5935 112.492,56.2601 120.5,59.5C 125.99,58.0858 131.49,56.7525 137,55.5C 140.763,55.8654 144.263,57.032 147.5,59C 152.087,59.7991 156.587,59.6324 161,58.5C 161.833,78.5083 161.666,98.5083 160.5,118.5C 158.224,119.213 155.891,119.713 153.5,120C 156.005,121.295 158.672,121.461 161.5,120.5C 161.5,121.5 161.5,122.5 161.5,123.5C 145.566,124.822 145.566,125.488 161.5,125.5C 161.5,126.833 161.5,128.167 161.5,129.5C 140.309,129.572 140.309,130.239 161.5,131.5C 161.5,132.5 161.5,133.5 161.5,134.5C 158.843,134.83 156.176,135.163 153.5,135.5C 147.242,133.875 140.909,132.541 134.5,131.5C 128.231,133.134 121.898,134.467 115.5,135.5C 108.552,134.682 101.719,133.349 95,131.5C 88.5824,133.144 82.0824,133.644 75.5,133C 69.6762,130.034 63.6762,129.367 57.5,131C 52.5,131.667 47.5,131.667 42.5,131C 37.69,129.048 32.69,127.881 27.5,127.5C 20.2387,128.774 13.072,130.44 6,132.5C 5.16667,132.333 4.33333,132.167 3.5,132C 3.83333,131.667 4.16667,131.333 4.5,131C 7.86123,130.946 10.8612,129.946 13.5,128C 10.2986,128.773 6.9653,129.273 3.5,129.5C 3.5,128.167 3.5,126.833 3.5,125.5C 6.72159,125.892 9.72159,125.392 12.5,124C 9.49292,123.699 6.49292,123.865 3.5,124.5C 3.5,123.5 3.5,122.5 3.5,121.5C 9.96605,120.377 9.96605,119.71 3.5,119.5C 3.16699,98.1563 3.50033,76.8229 4.5,55.5C 6.99195,57.3867 9.82528,58.3867 13,58.5C 17.3802,57.4025 21.7135,56.4025 26,55.5C 31.2738,56.6993 36.6072,57.6993 42,58.5C 48.2744,57.1822 54.6078,56.1822 61,55.5C 67.0852,56.0217 73.0852,57.0217 79,58.5C 84.8656,58.0992 90.3656,56.7659 95.5,54.5 Z"/></g>
<g><path style="opacity:1" fill="#010101" d="M 57.5,59.5 C 63.2845,59.4899 68.9512,60.3233 74.5,62C 82.1464,65.7936 84.3131,71.6269 81,79.5C 77.7694,85.399 73.7694,90.7324 69,95.5C 67.0363,97.8533 66.5363,100.353 67.5,103C 69.0349,103.496 70.5349,103.33 72,102.5C 75.5134,99.3196 78.6801,95.8196 81.5,92C 87.7602,90.0288 93.4269,87.0288 98.5,83C 100.871,82.2652 103.205,81.4318 105.5,80.5C 109.779,81.274 114.113,81.774 118.5,82C 122.884,82.8056 126.884,84.4723 130.5,87C 128.999,88.2515 127.332,89.2515 125.5,90C 128.308,90.0186 130.641,91.0186 132.5,93C 129.518,93.9153 126.852,95.4153 124.5,97.5C 126.745,99.5875 129.412,100.921 132.5,101.5C 133.833,103.5 135.167,105.5 136.5,107.5C 133.788,108.228 131.121,109.061 128.5,110C 132.197,111.726 135.864,111.56 139.5,109.5C 140.564,115.452 137.897,118.452 131.5,118.5C 131.492,121.545 131.159,124.545 130.5,127.5C 132.564,127.687 134.564,128.187 136.5,129C 129.015,130.246 121.515,131.413 114,132.5C 107.929,131.463 101.929,130.13 96,128.5C 85.8264,131.094 75.6597,131.094 65.5,128.5C 56.4499,129.926 47.4499,129.759 38.5,128C 38.1667,127.667 37.8333,127.333 37.5,127C 38.8333,126.667 40.1667,126.333 41.5,126C 39.5087,123.517 38.5087,120.684 38.5,117.5C 40.2112,106.592 45.5445,97.7586 54.5,91C 62.357,87.5222 66.5236,81.6889 67,73.5C 64.1431,71.2446 61.1431,71.2446 58,73.5C 55.1519,76.681 51.9853,79.5143 48.5,82C 43.2166,83.4339 38.2166,85.6006 33.5,88.5C 33.1667,88.3333 32.8333,88.1667 32.5,88C 35.3633,86.6365 37.3633,84.4698 38.5,81.5C 38.1667,81.1667 37.8333,80.8333 37.5,80.5C 34.6959,82.1381 32.0292,83.9715 29.5,86C 28.365,86.7494 27.365,86.5827 26.5,85.5C 28.6779,82.8232 31.0113,80.3232 33.5,78C 32.3908,74.174 33.3908,70.8407 36.5,68C 42.8988,63.4601 49.8988,60.6268 57.5,59.5 Z"/></g>
<g><path style="opacity:1" fill="#fcfcfc" d="M 58.5,61.5 C 66.1139,61.1811 72.9472,63.1811 79,67.5C 80.9892,73.5793 79.9892,79.246 76,84.5C 70.7312,89.2558 66.8979,94.9225 64.5,101.5C 64.6799,102.554 65.0133,103.554 65.5,104.5C 67.7649,105.647 70.0982,105.814 72.5,105C 76.5352,101.3 80.2019,97.2998 83.5,93C 86.3154,91.2787 89.3154,90.6121 92.5,91C 90.4127,91.7922 88.5793,92.9588 87,94.5C 86.9115,97.0215 87.7448,97.1882 89.5,95C 92.1667,94.3333 94.8333,94.3333 97.5,95C 94.8268,96.0014 92.4935,97.5014 90.5,99.5C 95.0811,99.3688 99.7478,99.8688 104.5,101C 102.833,101.333 101.167,101.667 99.5,102C 103.225,102.76 106.892,102.593 110.5,101.5C 110.833,101.667 111.167,101.833 111.5,102C 110.167,103 108.833,104 107.5,105C 108.672,105.419 109.672,106.085 110.5,107C 107.722,109.258 104.722,109.758 101.5,108.5C 102.167,107.5 102.833,106.5 103.5,105.5C 103.167,105.167 102.833,104.833 102.5,104.5C 98.8453,106.809 94.8453,107.976 90.5,108C 99.6301,107.772 100.297,109.105 92.5,112C 96.2128,112.405 99.8794,112.405 103.5,112C 101.999,113.252 100.332,114.252 98.5,115C 93.4708,116.15 88.4708,116.484 83.5,116C 89.8835,117.128 96.3835,117.628 103,117.5C 109.853,116.157 116.353,113.824 122.5,110.5C 125.91,111.249 129.244,112.249 132.5,113.5C 134.473,112.669 136.473,112.502 138.5,113C 135.879,115.201 133.046,117.035 130,118.5C 129.81,122.076 128.643,125.242 126.5,128C 122.312,129.476 117.979,130.31 113.5,130.5C 107.383,129.03 101.216,127.697 95,126.5C 85.0142,128.964 75.0142,128.964 65,126.5C 58.5085,127.333 52.0085,127.5 45.5,127C 39.908,121.521 39.0747,115.355 43,108.5C 44.3314,105.166 46.1647,102.166 48.5,99.5C 54.8143,94.3535 60.9809,89.0201 67,83.5C 72.5768,73.4945 69.7434,69.3278 58.5,71C 55.5372,72.9606 52.8706,75.294 50.5,78C 48.421,79.6398 46.0876,80.8064 43.5,81.5C 42.5344,79.604 42.2011,77.604 42.5,75.5C 43.8221,75.67 44.9887,75.3366 46,74.5C 46.4497,72.481 47.283,70.6477 48.5,69C 47.5,68.3333 46.5,68.3333 45.5,69C 43.2491,71.9163 40.4157,74.083 37,75.5C 35.9412,75.3699 35.1079,74.8699 34.5,74C 38.0682,69.2082 42.7348,65.8749 48.5,64C 51.9913,63.262 55.3246,62.4287 58.5,61.5 Z"/></g>
<g><path style="opacity:1" fill="#fefffe" d="M 101.5,83.5 C 102.552,83.3505 103.552,83.5172 104.5,84C 102.91,85.0458 101.41,86.2125 100,87.5C 99.3123,88.3317 99.479,88.9984 100.5,89.5C 105.456,85.1791 111.122,83.5125 117.5,84.5C 114.327,86.2831 110.994,87.7831 107.5,89C 105.74,89.9653 105.406,91.132 106.5,92.5C 111.762,89.6879 117.262,87.3545 123,85.5C 124.225,85.8623 125.391,86.3623 126.5,87C 121.341,89.4121 116.341,92.0788 111.5,95C 115.617,94.0471 119.784,92.8804 124,91.5C 125.225,91.8623 126.391,92.3623 127.5,93C 118.108,100.079 108.108,101.412 97.5,97C 99.5,96.3333 101.5,95.6667 103.5,95C 100.754,93.2503 97.7536,92.2503 94.5,92C 95.8146,90.6054 95.4812,89.6054 93.5,89C 96.4068,87.3909 99.0734,85.5576 101.5,83.5 Z"/></g>
<g><path style="opacity:1" fill="#fefffe" d="M 129.5,105.5 C 132.598,105.413 132.932,105.913 130.5,107C 122.116,108.526 114.116,111.192 106.5,115C 105.167,115.667 103.833,115.667 102.5,115C 107.019,111.571 111.352,107.904 115.5,104C 114.262,104.077 113.262,103.911 112.5,103.5C 114.074,102.016 115.407,100.349 116.5,98.5C 118.776,99.2132 121.109,99.7132 123.5,100C 121.167,101.5 118.833,103 116.5,104.5C 117.167,104.833 117.833,105.167 118.5,105.5C 121.538,104.063 124.704,103.063 128,102.5C 129.167,102.667 130.333,102.833 131.5,103C 130.619,103.708 129.953,104.542 129.5,105.5 Z"/></g>
<g><path style="opacity:1" fill="#000000" d="M 50.5,100.5 C 52.337,100.639 52.6704,101.306 51.5,102.5C 50.7025,102.043 50.3691,101.376 50.5,100.5 Z"/></g>
<g><path style="opacity:1" fill="#000000" d="M 48.5,102.5 C 49.3345,104.263 48.8345,105.93 47,107.5C 46.3872,105.505 46.8872,103.838 48.5,102.5 Z"/></g>
<g><path style="opacity:1" fill="#000000" d="M 80.5,102.5 C 81.8699,102.856 82.8699,103.69 83.5,105C 83.9452,108.123 83.4452,111.289 82,114.5C 79.9592,115.423 77.7925,115.756 75.5,115.5C 75.6219,111.162 75.9553,110.828 76.5,114.5C 78.4286,114.769 80.0953,114.269 81.5,113C 80.6919,112.692 80.0253,112.192 79.5,111.5C 82.9528,110.521 83.2862,109.021 80.5,107C 81.1667,106.333 81.8333,105.667 82.5,105C 80.7928,104.805 79.1261,104.805 77.5,105C 78.5707,104.148 79.5707,103.315 80.5,102.5 Z"/></g>
<g><path style="opacity:1" fill="#000000" d="M 93.5,102.5 C 99.8485,102.379 99.8485,103.379 93.5,105.5C 92.913,104.767 92.913,103.767 93.5,102.5 Z"/></g>
<g><path style="opacity:1" fill="#000000" d="M 129.5,105.5 C 126.72,106.82 123.72,107.32 120.5,107C 123.278,105.608 126.278,105.108 129.5,105.5 Z"/></g>
<g><path style="opacity:1" fill="#000000" d="M 44.5,118.5 C 46.4411,120.011 46.9411,122.011 46,124.5C 45.5,124 45,123.5 44.5,123C 45.4132,121.586 45.4132,120.086 44.5,118.5 Z"/></g>
<g><path style="opacity:1" fill="#cb0000" d="M 24.5,129.5 C 27.1873,129.336 29.854,129.503 32.5,130C 42.5178,134.741 52.8511,135.574 63.5,132.5C 67.6024,132.811 71.6024,133.644 75.5,135C 81.8392,135.445 88.1725,135.278 94.5,134.5C 101.465,135.625 108.465,136.625 115.5,137.5C 122.085,136.815 128.585,135.815 135,134.5C 141.173,135.389 147.34,136.389 153.5,137.5C 155.56,137.428 157.56,137.095 159.5,136.5C 157.025,157.263 147.358,174.096 130.5,187C 106.81,203.447 81.1429,207.114 53.5,198C 26.0557,185.556 9.38905,164.556 3.5,135C 10.8954,134.28 17.8954,132.446 24.5,129.5 Z"/></g>
<g><path style="opacity:1" fill="#fefffe" d="M -0.5,131.5 C 6.25968,171.928 29.593,196.928 69.5,206.5C 46.1667,206.5 22.8333,206.5 -0.5,206.5C -0.5,181.5 -0.5,156.5 -0.5,131.5 Z"/></g>
<g><path style="opacity:1" fill="#fefffe" d="M 165.5,133.5 C 165.5,157.833 165.5,182.167 165.5,206.5C 142.167,206.5 118.833,206.5 95.5,206.5C 104.002,204.388 112.336,201.554 120.5,198C 145.657,183.381 160.657,161.881 165.5,133.5 Z"/></g>
</svg>

<svg xmlns="http://www.w3.org/2000/svg" width="166" height="207" style="shape-rendering:geometricPrecision;text-rendering:geometricPrecision;image-rendering:optimizeQuality;fill-rule:evenodd;clip-rule:evenodd"><path style="opacity:1" d="M-.5-.5h166v134c-4.843 28.381-19.843 49.881-45 64.5a157.946 157.946 0 0 1-25 8.5h-26c-39.907-9.572-63.24-34.572-70-75V-.5z"/><path style="opacity:1" fill="#cb0000" d="M3.5 3.5h158c.333 17.68 0 35.346-1 53-1.94.595-3.94.928-6 1l-18-4-16 3a115.542 115.542 0 0 0-20-4 79.25 79.25 0 0 0-20 4 86.6 86.6 0 0 0-19.5-3c-6.553.52-13.053 1.52-19.5 3-5.335-1.335-10.669-2.668-16-4a52.79 52.79 0 0 0-12 4c-3.618-.357-6.785-1.69-9.5-4-.5-16.33-.667-32.663-.5-49z"/><path style="opacity:1" fill="#fefffe" d="M95.5 54.5c8.658.093 16.992 1.76 25 5a593.65 593.65 0 0 1 16.5-4 24.525 24.525 0 0 1 10.5 3.5c4.587.8 9.087.632 13.5-.5a600.696 600.696 0 0 1-.5 60 38.852 38.852 0 0 1-7 1.5c2.505 1.295 5.172 1.461 8 .5v3c-15.934 1.322-15.934 1.988 0 2v4c-21.191.072-21.191.739 0 2v3c-2.657.33-5.324.663-8 1a208.66 208.66 0 0 0-19-4 204.556 204.556 0 0 1-19 4 137.933 137.933 0 0 1-20.5-4 56.012 56.012 0 0 1-19.5 1.5c-5.824-2.966-11.824-3.633-18-2-5 .667-10 .667-15 0a49.233 49.233 0 0 0-15-3.5 201.05 201.05 0 0 0-21.5 5l-2.5-.5 1-1c3.361-.054 6.361-1.054 9-3a58.953 58.953 0 0 1-10 1.5v-4c3.222.392 6.222-.108 9-1.5a29.13 29.13 0 0 0-9 .5v-3c6.466-1.123 6.466-1.79 0-2-.333-21.344 0-42.677 1-64 2.492 1.887 5.325 2.887 8.5 3a351.227 351.227 0 0 1 13-3c5.274 1.2 10.607 2.2 16 3a190.982 190.982 0 0 1 19-3 114.427 114.427 0 0 1 18 3c5.866-.4 11.366-1.734 16.5-4z"/><path style="opacity:1" fill="#010101" d="M57.5 59.5a58.105 58.105 0 0 1 17 2.5c7.646 3.794 9.813 9.627 6.5 17.5a70.17 70.17 0 0 1-12 16c-1.964 2.353-2.464 4.853-1.5 7.5 1.535.496 3.035.33 4.5-.5A71.042 71.042 0 0 0 81.5 92c6.26-1.971 11.927-4.971 17-9a87.287 87.287 0 0 0 7-2.5 102.63 102.63 0 0 0 13 1.5c4.384.806 8.384 2.472 12 5a18.95 18.95 0 0 1-5 3c2.808.019 5.141 1.019 7 3a21.395 21.395 0 0 0-8 4.5c2.245 2.088 4.912 3.421 8 4l4 6a102.505 102.505 0 0 0-8 2.5c3.697 1.726 7.364 1.56 11-.5 1.064 5.952-1.603 8.952-8 9a41.73 41.73 0 0 1-1 9c2.064.187 4.064.687 6 1.5a1068.738 1068.738 0 0 1-22.5 3.5 186.003 186.003 0 0 1-18-4c-10.174 2.594-20.34 2.594-30.5 0-9.05 1.426-18.05 1.259-27-.5l-1-1 4-1c-1.991-2.483-2.991-5.316-3-8.5 1.711-10.908 7.044-19.741 16-26.5 7.857-3.478 12.024-9.311 12.5-17.5-2.857-2.255-5.857-2.255-9 0a57.615 57.615 0 0 1-9.5 8.5 57.033 57.033 0 0 0-15 6.5l-1-.5c2.863-1.364 4.863-3.53 6-6.5l-1-1a65.891 65.891 0 0 0-8 5.5c-1.135.75-2.135.583-3-.5a74.975 74.975 0 0 1 7-7.5c-1.11-3.826-.11-7.16 3-10 6.399-4.54 13.399-7.373 21-8.5z"/><path style="opacity:1" fill="#fcfcfc" d="M58.5 61.5c7.614-.319 14.447 1.681 20.5 6 1.99 6.08.99 11.746-3 17-5.269 4.756-9.102 10.422-11.5 17a10.31 10.31 0 0 0 1 3c2.265 1.147 4.598 1.314 7 .5 4.035-3.7 7.702-7.7 11-12 2.815-1.721 5.815-2.388 9-2a15.83 15.83 0 0 0-5.5 3.5c-.088 2.522.745 2.688 2.5.5a16.25 16.25 0 0 1 8 0 19.36 19.36 0 0 0-7 4.5c4.581-.131 9.248.369 14 1.5l-5 1c3.725.76 7.392.593 11-.5l1 .5-4 3a7.293 7.293 0 0 1 3 2c-2.778 2.258-5.778 2.758-9 1.5l2-3-1-1c-3.655 2.309-7.655 3.476-12 3.5 9.13-.228 9.797 1.105 2 4 3.713.405 7.38.405 11 0a18.924 18.924 0 0 1-5 3c-5.03 1.15-10.03 1.484-15 1a100.616 100.616 0 0 0 19.5 1.5 68.43 68.43 0 0 0 19.5-7 69.294 69.294 0 0 1 10 3c1.973-.831 3.973-.998 6-.5a40.411 40.411 0 0 1-8.5 5.5c-.19 3.576-1.357 6.742-3.5 9.5a44.575 44.575 0 0 1-13 2.5 415.046 415.046 0 0 0-18.5-4c-9.986 2.464-19.986 2.464-30 0-6.492.833-12.992 1-19.5.5-5.592-5.479-6.425-11.645-2.5-18.5a31.002 31.002 0 0 1 5.5-9 419.31 419.31 0 0 0 18.5-16c5.577-10.005 2.743-14.172-8.5-12.5a39.788 39.788 0 0 0-8 7 19.215 19.215 0 0 1-7 3.5 9.864 9.864 0 0 1-1-6c1.322.17 2.489-.163 3.5-1a14.437 14.437 0 0 1 2.5-5.5c-1-.667-2-.667-3 0-2.25 2.916-5.084 5.083-8.5 6.5-1.059-.13-1.892-.63-2.5-1.5 3.568-4.792 8.235-8.125 14-10a135.373 135.373 0 0 0 10-2.5z"/><path style="opacity:1" fill="#fefffe" d="M101.5 83.5a4.932 4.932 0 0 1 3 .5 36.012 36.012 0 0 0-4.5 3.5c-.688.832-.521 1.498.5 2 4.956-4.32 10.622-5.987 17-5a61.972 61.972 0 0 1-10 4.5c-1.76.965-2.094 2.132-1 3.5a100.516 100.516 0 0 1 16.5-7 16.23 16.23 0 0 1 3.5 1.5 160.975 160.975 0 0 0-15 8c4.117-.953 8.284-2.12 12.5-3.5a16.23 16.23 0 0 1 3.5 1.5c-9.392 7.079-19.392 8.412-30 4l6-2a19.248 19.248 0 0 0-9-3c1.315-1.395.981-2.395-1-3a49.078 49.078 0 0 0 8-5.5z"/><path style="opacity:1" fill="#fefffe" d="M129.5 105.5c3.098-.087 3.432.413 1 1.5a89.054 89.054 0 0 0-24 8c-1.333.667-2.667.667-4 0a160.621 160.621 0 0 0 13-11c-1.238.077-2.238-.089-3-.5a22.755 22.755 0 0 0 4-5 38.817 38.817 0 0 0 7 1.5l-7 4.5 2 1a36.481 36.481 0 0 1 9.5-3l3.5.5c-.881.708-1.547 1.542-2 2.5z"/><path style="opacity:1" d="M50.5 100.5c1.837.139 2.17.806 1 2-.797-.457-1.13-1.124-1-2zM48.5 102.5c.834 1.763.334 3.43-1.5 5-.613-1.995-.113-3.662 1.5-5zM80.5 102.5c1.37.356 2.37 1.19 3 2.5.445 3.123-.055 6.289-1.5 9.5-2.04.923-4.207 1.256-6.5 1 .122-4.338.455-4.672 1-1 1.929.269 3.595-.231 5-1.5a4.458 4.458 0 0 1-2-1.5c3.453-.979 3.786-2.479 1-4.5l2-2a21.438 21.438 0 0 0-5 0 81.819 81.819 0 0 0 3-2.5zM93.5 102.5c6.349-.121 6.349.879 0 3-.587-.733-.587-1.733 0-3zM129.5 105.5c-2.78 1.32-5.78 1.82-9 1.5 2.778-1.392 5.778-1.892 9-1.5zM44.5 118.5c1.941 1.511 2.441 3.511 1.5 6l-1.5-1.5c.913-1.414.913-2.914 0-4.5z"/><path style="opacity:1" fill="#cb0000" d="M24.5 129.5a32.462 32.462 0 0 1 8 .5c10.018 4.741 20.351 5.574 31 2.5a47.235 47.235 0 0 1 12 2.5c6.34.445 12.672.278 19-.5a582.828 582.828 0 0 0 21 3 200.19 200.19 0 0 0 19.5-3c6.173.889 12.34 1.889 18.5 3 2.06-.072 4.06-.405 6-1-2.475 20.763-12.142 37.596-29 50.5-23.69 16.447-49.357 20.114-77 11-27.444-12.444-44.111-33.444-50-63 7.395-.72 14.395-2.554 21-5.5z"/><path style="opacity:1" fill="#fefffe" d="M-.5 131.5c6.76 40.428 30.093 65.428 70 75h-70v-75zM165.5 133.5v73h-70a157.946 157.946 0 0 0 25-8.5c25.157-14.619 40.157-36.119 45-64.5z"/></svg>
